icons/unity-panel/24x24/panel/gnome-netstatus-50-74.svg

<svg version="1.0" viewBox="0 0 24 24" xmlns="http://www.w3.org/2000/svg">
 <path d="m12 3c-3.7463-9e-4 -7.4923 1.1917-10.621 3.5801l-0.37891 0.29102 0.29297 0.375 10.703 13.754 11.004-14.125-0.37891-0.28906c-3.1276-2.3899-6.8748-3.585-10.621-3.5859zm0 0.94531c3.3853 8.3e-4 6.7568 1.0654 9.6328 3.1328l-2.0273 2.6016a13.102 12.976 0 0 0-15.213-0.0019531l-2.0254-2.6035c2.877-2.066 6.2475-3.1297 9.6328-3.1289z" color="#000000" color-rendering="auto" fill="#F9F9F9" image-rendering="auto" shape-rendering="auto" solid-color="#000000" style="font-feature-settings:normal;font-variant-alternates:normal;font-variant-caps:normal;font-variant-ligatures:none;font-variant-numeric:normal;font-variant-position:normal;isolation:auto;mix-blend-mode:normal;shape-padding:0;text-decoration-color:#000000;text-decoration-line:none;text-decoration-style:solid;text-indent:0;text-transform:none;white-space:normal"/>
</svg>

<svg version="1.0" viewBox="0 0 24 24" xmlns="http://www.w3.org/2000/svg"><path d="M12 3A17.472 17.472 0 0 0 1.379 6.58L1 6.871l.293.375L11.996 21 23 6.875l-.379-.289A17.478 17.478 0 0 0 12.001 3zm0 .945c3.385.001 6.757 1.066 9.633 3.133L19.606 9.68a13.102 12.976 0 0 0-15.214-.002L2.368 7.074C5.244 5.008 8.615 3.944 12 3.945z" color="#000" fill="#F9F9F9" style="font-feature-settings:normal;font-variant-alternates:normal;font-variant-caps:normal;font-variant-ligatures:none;font-variant-numeric:normal;font-variant-position:normal;isolation:auto;mix-blend-mode:normal;shape-padding:0;text-decoration-color:#000;text-decoration-line:none;text-decoration-style:solid;text-indent:0;text-transform:none;white-space:normal"/></svg>
